X: 1
T: Annie Laurie
M: 4/4
L: 1/8
R: strathspey
K: Dmaj
FE|D3D d3c|c2{dc} B3 z zB|A3F F2 ED|E6 FE|
D3D d3c|c2{dc} B3 z zB|A3F E3D|D6 A2|
d3d e3e|f6 A2|d3d e3e|f6 fe|
d3c B2 dB|AF3 z F ED|d4 FE3|ED3 D4-|
D4 z2 FE|D3D d3c|c2{dc} B3 z zB|A3F F2 ED|
E6 FE|D3D d3c|c2{dc} B3 z zB|A3F E3D|
D6 A2|d3d e3e|f6 A2|d3d e3e|
f6 fe|d3c B2 dB|AF3 z F ED|d4 FE3|
ED3 D4-|D4 z2 fe|d3d d'3c'|c'2{d'c'} b3 z zb|
a3f f2 ed|e6 fe|d3d d'3c'|c'2{d'c'} b3 z zb|
a3f e3d|d6 A2|d3d e3e|f6 A2|
d3d e3e|f6 fe|d3c B2 dB|AF3 z F ED|
d4 FE3|ED3 D4-|D4 z2 :|
